svgs/solid/truck-ramp-couch.svg

<svg xmlns="http://www.w3.org/2000/svg" viewBox="0 0 640 512"><!--! Font Awesome Pro 6.1.1 by @fontawesome - https://fontawesome.com License - https://fontawesome.com/license (Commercial License) Copyright 2022 Fonticons, Inc. --><path d="M640 .0003V400C640 461.9 589.9 512 528 512C467 512 417.5 463.3 416 402.7L48.41 502.9C31.36 507.5 13.77 497.5 9.126 480.4C4.48 463.4 14.54 445.8 31.59 441.1L352 353.8V64C352 28.65 380.7 0 416 0L640 .0003zM528 352C501.5 352 480 373.5 480 400C480 426.5 501.5 448 528 448C554.5 448 576 426.5 576 400C576 373.5 554.5 352 528 352zM294.5 209.2C303.2 206.8 311.9 207 320 209.3V334.8L33.98 411.5L13.27 334.2C6.412 308.6 21.61 282.3 47.21 275.4C72.82 268.5 99.14 283.7 106 309.4L110.1 324.8L264.7 283.4L260.6 267.9C253.7 242.3 268.9 216 294.5 209.2V209.2zM8.023 252.8C-1.125 218.6 19.14 183.5 53.28 174.4L238.7 124.7C272.9 115.6 307.1 135.8 317.1 169.1L318.8 176.4C308.3 174.8 297.2 175.3 286.2 178.2C248.8 188.3 224.8 223.2 227 260.4L131.2 286C114.6 252.7 76.32 234.5 38.93 244.5C27.94 247.4 18.1 252.5 9.745 259.2L8.023 252.8z"/></svg>

<svg xmlns="http://www.w3.org/2000/svg" viewBox="0 0 640 512"><!--! Font Awesome Pro 6.4.2 by @fontawesome - https://fontawesome.com License - https://fontawesome.com/license (Commercial License) Copyright 2023 Fonticons, Inc. --><path d="M640 0V400c0 61.9-50.1 112-112 112c-61 0-110.5-48.7-112-109.3L48.4 502.9c-17.1 4.6-34.6-5.4-39.3-22.5s5.4-34.6 22.5-39.3L352 353.8V64c0-35.3 28.7-64 64-64H640zM576 400a48 48 0 1 0 -96 0 48 48 0 1 0 96 0zM294.5 209.2c8.7-2.3 17.4-2.1 25.5 .2V334.8l-38.7 10.4L126.7 386.6 64.9 403.2c-17.1 4.6-34.6-5.6-39.2-22.6L13.3 334.2c-6.9-25.6 8.3-51.9 33.9-58.8s51.9 8.3 58.8 33.9l4.1 15.5 154.5-41.4-4.1-15.5c-6.9-25.6 8.3-51.9 33.9-58.8zM8 252.8c-9.1-34.1 11.1-69.2 45.3-78.4l185.5-49.7c34.1-9.1 69.2 11.1 78.4 45.3l1.7 6.4c-10.6-1.6-21.6-1.1-32.6 1.9c-37.4 10-61.5 44.9-59.2 82.1L131.2 286c-16.6-33.4-54.9-51.5-92.3-41.5c-11 2.9-20.8 8-29.2 14.7L8 252.8z"/></svg>
